packages/foundations/assets/icons/functional/images/human/shower_men_12.svg

<svg width="12" height="12" viewBox="0 0 12 12" fill="none" xmlns="http://www.w3.org/2000/svg">
<g clip-path="url(#clip0_232_259)">
<path fill-rule="evenodd" clip-rule="evenodd" d="M3.8501 4.05084C4.76113 4.05084 5.48713 4.77681 5.48709 5.68783C5.49297 6.59856 4.76081 7.34234 3.8501 7.35081C2.9343 7.34447 2.19347 6.60363 2.18713 5.68783C2.19563 4.77713 2.93938 4.045 3.8501 4.05084ZM8.3858 6.00373C8.6279 5.94781 8.86948 6.09884 8.92546 6.34099C8.98144 6.58304 8.83055 6.82467 8.58846 6.88049C8.34636 6.93631 8.10477 6.78537 8.04879 6.54323C7.99281 6.30108 8.1437 6.05955 8.3858 6.00373ZM10.0606 5.76176C10.2754 5.63695 10.5509 5.70993 10.676 5.92475C10.801 6.13957 10.7282 6.41494 10.5136 6.53985C10.2989 6.66466 10.0235 6.59168 9.89837 6.37686C9.77329 6.16194 9.84589 5.88657 10.0606 5.76176ZM6.29815 5.92335C6.42295 5.70871 6.69832 5.63599 6.91313 5.76108C7.12804 5.88617 7.20101 6.16162 7.07611 6.37627C6.9512 6.59101 6.67584 6.66373 6.46103 6.53864C6.24622 6.41355 6.17325 6.1381 6.29815 5.92335ZM8.38582 4.61848C8.62794 4.56266 8.86954 4.7137 8.92542 4.95575C8.98151 5.1979 8.83061 5.43943 8.5885 5.49525C8.34638 5.55117 8.10478 5.40013 8.04879 5.15798C7.99281 4.91593 8.14371 4.6744 8.38582 4.61848ZM6.74808 4.57439C6.87289 4.35965 7.14837 4.28694 7.36319 4.41203C7.578 4.53711 7.65098 4.81255 7.52617 5.02729C7.40126 5.24204 7.12589 5.31464 6.91107 5.18956C6.69625 5.06457 6.62327 4.78903 6.74808 4.57439ZM9.61062 4.41183C9.82537 4.28692 10.1008 4.3599 10.2259 4.57472C10.351 4.78954 10.2783 5.06492 10.0636 5.18983C9.84889 5.31464 9.57344 5.24176 9.44835 5.02684C9.32326 4.81202 9.39598 4.53664 9.61062 4.41183ZM8.48713 1.20081C8.79483 1.20081 9.08704 1.45797 9.08704 1.80081V2.59521L9.33536 2.6257L9.92413 2.70715C10.252 2.7552 10.4788 3.05994 10.4308 3.38781C10.3827 3.71568 10.078 3.94252 9.75012 3.89446L8.99062 3.79249C8.82083 3.7647 8.65235 3.75081 8.48516 3.75081C8.31798 3.75081 8.1508 3.7647 7.98363 3.79249L7.22413 3.89446C6.89627 3.94252 6.59152 3.71568 6.54347 3.38781C6.49542 3.05994 6.72225 2.7552 7.05012 2.70715L7.6389 2.6257L7.88704 2.59641L7.88713 1.80081C7.88713 1.46943 8.15576 1.20081 8.48713 1.20081ZM5.5025 8.40073C6.23713 8.40073 6.53421 9.1117 6.34411 9.6199C6.24678 9.88014 6.14815 10.1403 6.04823 10.4003C5.93073 10.7102 5.58427 10.8662 5.27439 10.7487C4.98663 10.6396 4.81024 10.2992 4.92603 9.97482C4.97191 9.85006 5.01894 9.72539 5.06713 9.60081H2.60293L2.74899 9.99009C2.85705 10.2782 2.73417 10.6365 2.39784 10.7627C2.1097 10.8707 1.74794 10.7343 1.62527 10.4115C1.52464 10.1468 1.4253 9.88187 1.32724 9.61687C1.06541 8.91872 1.65362 8.40135 2.17 8.40073C3.28069 8.39939 4.39152 8.39939 5.5025 8.40073Z" fill="#1A1C1F"/>
</g>
<defs>
<clipPath id="clip0_232_259">
<rect width="12" height="12" fill="white"/>
</clipPath>
</defs>
</svg>

<svg xmlns="http://www.w3.org/2000/svg" width="12" height="12" fill="none"><g clip-path="url(#a)"><path fill="#1A1C1F" fill-rule="evenodd" d="M3.85 4.05c.911 0 1.637.727 1.637 1.638A1.65 1.65 0 0 1 3.85 7.35a1.675 1.675 0 0 1-1.663-1.663A1.65 1.65 0 0 1 3.85 4.05m4.536 1.954a.45.45 0 1 1 .202.877.45.45 0 0 1-.202-.877m1.675-.242a.45.45 0 1 1 .452.779.45.45 0 0 1-.452-.78m-3.763.161a.45.45 0 1 1 .777.453.45.45 0 0 1-.777-.453M8.386 4.62a.45.45 0 1 1 .202.877.45.45 0 0 1-.202-.877m-1.638-.045a.45.45 0 1 1 .777.453.45.45 0 0 1-.777-.453m2.863-.162a.45.45 0 1 1 .452.778.45.45 0 0 1-.452-.778M8.487 1.2c.308 0 .6.257.6.6v.794l.248.03.59.082a.6.6 0 0 1-.175 1.187l-.76-.101a3.1 3.1 0 0 0-1.006 0l-.76.101a.6.6 0 1 1-.174-1.187l.589-.081.248-.03v-.795a.6.6 0 0 1 .6-.6M5.503 8.4c.734 0 1.031.71.841 1.219q-.146.39-.296.78a.6.6 0 0 1-.774.349.61.61 0 0 1-.348-.774q.069-.188.141-.374H2.603l.146.39a.597.597 0 0 1-.351.772.607.607 0 0 1-.773-.351q-.15-.397-.298-.795c-.262-.698.327-1.216.843-1.216q1.666-.003 3.333 0" clip-rule="evenodd"/></g><defs><clipPath id="a"><path fill="#fff" d="M0 0h12v12H0z"/></clipPath></defs></svg>
